Yaru++/status/symbolic/group-avatar-symbolic.svg

<svg height="16" width="16" xmlns="http://www.w3.org/2000/svg"><g fill="#808080"><path d="m5.09375.54492188a2.3662548 2.3662548 0 0 0 -.9316406.18359374c-.28745.11747956-.5433964.28925748-.7558594.51171878v.00391.00195c-.2066307.224127-.3668684.4922142-.4785156.7988275-.1141468.3057801-.1699219.6408958-.1699219 1 0 .3624369.054942.7011992.1699219 1.0078125.1124804.300781.2727181.5660548.4785156.7910156v.00195c.2116298.2224613.4661695.3970526.7519531.5195313v.00195c.2882832.1174796.6008649.1757813.9316407.1757813.3291093 0 .6425242-.058302.9316406-.1757813v-.00195c.1647554-.0706064.3133865-.1628723.453125-.2675751-.0762241-.2601742-.1230469-.5353678-.1230469-.8320312 0-.3591042.055775-.6942199.1699219-1 .1116472-.3066133.2718849-.5766536.4785156-.8007812v-.00195-.00195c.0924068-.0967617.197027-.1784348.3046875-.2558657-.0158151-.0525178-.0238054-.1091929-.0429687-.1601562a2.3087648 2.3087648 0 0 0 -.4863282-.8007813 2.0829708 2.0829708 0 0 0 -.7480468-.51562498 2.3620889 2.3620889 0 0 0 -.9316407-.18359374zm.021484 6.66601562c-1.9304974 0-2.9675821.1790334-3.7382813.7597656-.38493258.2916159-.63794118.6857313-.78124958 1.1464844-.14330839.4607531-.18973987.8133878-.19140624 1.4257815l3.73632812.002c.0179292-.068749.0242687-.134397.046875-.207078.1433084-.4607535.3982701-.856822.7832031-1.1484379.7706992-.5807322 1.8077839-.7578125 3.7382813-.7578125.211463 0 .3724319.01103.5625.015625-.1253018-.1786688-.2757485-.3399152-.4570313-.4765625-.7690328-.5807322-1.7695546-.7597656-3.6992191-.7597656z" stroke-width=".833188" transform="matrix(1.07473675719 0 0 1.07473675719 -.09801249179 .63699707762)"/><path d="m8 2a2.84 2.84 0 0 0 -1.12.221c-.345.141-.651.348-.906.615v.003l-.001.002c-.248.269-.44.592-.574.96-.137.367-.203.769-.203 1.2 0 .435.065.841.203 1.209.135.361.327.68.574.95l.001.002c.254.267.558.477.901.624v.003c.346.141.723.21 1.12.21.395 0 .77-.069 1.117-.21v-.002c.343-.147.644-.357.892-.625.255-.268.45-.59.586-.952.138-.368.204-.774.204-1.21h.01c0-.43-.065-.831-.203-1.198a2.771 2.771 0 0 0 -.585-.963 2.5 2.5 0 0 0 -.897-.618 2.835 2.835 0 0 0 -1.12-.221zm.024 8.002c-2.317 0-3.561.213-4.486.91-.462.35-.767.825-.939 1.378s-.226.975-.228 1.71l5.629.002h5.629c-.001-.736-.052-1.159-.225-1.712-.172-.553-.477-1.027-.94-1.376-.923-.697-2.124-.912-4.44-.912z" transform="matrix(.89545808 0 0 .89545808 3.132302 1.362101)"/></g></svg>

<?xml version="1.0" encoding="UTF-8" standalone="no"?>
<svg
   xmlns:dc="http://purl.org/dc/elements/1.1/"
   xmlns:cc="http://creativecommons.org/ns#"
   xmlns:rdf="http://www.w3.org/1999/02/22-rdf-syntax-ns#"
   xmlns:svg="http://www.w3.org/2000/svg"
   xmlns="http://www.w3.org/2000/svg"
   xmlns:sodipodi="http://sodipodi.sourceforge.net/DTD/sodipodi-0.dtd"
   xmlns:inkscape="http://www.inkscape.org/namespaces/inkscape"
   height="16"
   width="16"
   version="1.1"
   id="svg6"
   sodipodi:docname="system-users.svg"
   inkscape:version="0.92.4 (5da689c313, 2019-01-14)">
  <metadata
     id="metadata12">
    <rdf:RDF>
      <cc:Work
         rdf:about="">
        <dc:format>image/svg+xml</dc:format>
        <dc:type
           rdf:resource="http://purl.org/dc/dcmitype/StillImage" />
        <dc:title></dc:title>
      </cc:Work>
    </rdf:RDF>
  </metadata>
  <defs
     id="defs10" />
  <sodipodi:namedview
     pagecolor="#ffffff"
     bordercolor="#808080"
     borderopacity="1"
     objecttolerance="10"
     gridtolerance="10"
     guidetolerance="10"
     inkscape:pageopacity="0"
     inkscape:pageshadow="2"
     inkscape:window-width="1083"
     inkscape:window-height="820"
     id="namedview8"
     showgrid="false"
     inkscape:zoom="14.75"
     inkscape:cx="8"
     inkscape:cy="8"
     inkscape:window-x="354"
     inkscape:window-y="123"
     inkscape:window-maximized="0"
     inkscape:current-layer="svg6" />
  <g
     font-weight="400"
     letter-spacing="0"
     word-spacing="0"
     id="g4"
     transform="matrix(0.89545808,0,0,0.89545808,-1.7859845,-0.56878187)"
     style="color:#000000;font-weight:400;font-family:Ubuntu;letter-spacing:0;word-spacing:0;white-space:normal;fill:#808080">
    <path
       style="line-height:125%;-inkscape-font-specification:'Ubuntu, Normal';font-variant-ligatures:normal;font-variant-position:normal;font-variant-caps:normal;font-variant-numeric:normal;font-variant-alternates:normal;font-feature-settings:normal;text-indent:0;text-align:start;text-decoration:none;text-decoration-line:none;text-decoration-style:solid;text-decoration-color:#000000;text-transform:none;text-orientation:mixed;shape-padding:0;overflow:visible;isolation:auto;mix-blend-mode:normal;stroke-width:0.8331883"
       d="M 5.09375,0.54492188 A 2.3662548,2.3662548 0 0 0 4.1621094,0.72851562 C 3.8746594,0.84599518 3.618713,1.0177731 3.40625,1.2402344 v 0.00391 0.00195 c -0.2066307,0.224127 -0.3668684,0.4922142 -0.4785156,0.7988275 -0.1141468,0.3057801 -0.1699219,0.6408958 -0.1699219,1 0,0.3624369 0.054942,0.7011992 0.1699219,1.0078125 C 3.0402148,4.3535154 3.2004525,4.6187892 3.40625,4.84375 V 4.8457 c 0.2116298,0.2224613 0.4661695,0.3970526 0.7519531,0.5195313 v 0.00195 c 0.2882832,0.1174796 0.6008649,0.1757813 0.9316407,0.1757813 0.3291093,0 0.6425242,-0.058302 0.9316406,-0.1757813 v -0.00195 C 6.1862398,5.2946249 6.3348709,5.202359 6.4746094,5.0976562 6.3983853,4.837482 6.3515625,4.5622884 6.3515625,4.265625 c 0,-0.3591042 0.055775,-0.6942199 0.1699219,-1 C 6.6331316,2.9590117 6.7933693,2.6889714 7,2.4648438 v -0.00195 -0.00195 C 7.0924068,2.3641821 7.197027,2.282509 7.3046875,2.2050781 7.2888724,2.1525603 7.2808821,2.0958852 7.2617188,2.0449219 A 2.3087648,2.3087648 0 0 0 6.7753906,1.2441406 2.0829708,2.0829708 0 0 0 6.0273438,0.72851562 2.3620889,2.3620889 0 0 0 5.0957031,0.54492188 Z M 5.115234,7.2109375 c -1.9304974,0 -2.9675821,0.1790334 -3.7382813,0.7597656 C 0.99202012,8.262319 0.73901152,8.6564344 0.59570312,9.1171875 0.45239473,9.5779406 0.40596325,9.9305753 0.40429688,10.542969 l 3.73632812,0.002 C 4.1585542,10.47622 4.1648937,10.410572 4.1875,10.337891 4.3308084,9.8771375 4.5857701,9.481069 4.9707031,9.1894531 5.7414023,8.6087209 6.778487,8.4316406 8.7089844,8.4316406 c 0.211463,0 0.3724319,0.01103 0.5625,0.015625 C 9.1461826,8.2685968 8.9957359,8.1073504 8.8144531,7.9707031 8.0454203,7.3899709 7.0448985,7.2109375 5.115234,7.2109375 Z"
       transform="matrix(1.2002089,0,0,1.2002089,1.8850375,1.3465502)"
       id="path2"
       inkscape:connector-curvature="0" />
  </g>
  <g
     style="color:#000000;font-weight:400;font-family:Ubuntu;letter-spacing:0;word-spacing:0;white-space:normal;fill:#808080"
     transform="matrix(0.89545808,0,0,0.89545808,2.0757813,0.74276129)"
     id="g824"
     word-spacing="0"
     letter-spacing="0"
     font-weight="400" />
  <g
     font-weight="400"
     letter-spacing="0"
     word-spacing="0"
     id="g828"
     transform="matrix(0.89545808,0,0,0.89545808,3.1323021,1.3621011)"
     style="color:#000000;font-weight:400;font-family:Ubuntu;letter-spacing:0;word-spacing:0;white-space:normal;fill:#808080">
    <path
       d="M 8,2 A 2.84,2.84 0 0 0 6.88,2.221 C 6.535,2.362 6.229,2.569 5.974,2.836 V 2.839 L 5.973,2.841 C 5.725,3.11 5.533,3.433 5.399,3.801 5.262,4.168 5.196,4.57 5.196,5.001 c 0,0.435 0.065,0.841 0.203,1.209 0.135,0.361 0.327,0.68 0.574,0.95 l 0.001,0.002 c 0.254,0.267 0.558,0.477 0.901,0.624 v 0.003 c 0.346,0.141 0.723,0.21 1.12,0.21 0.395,0 0.77,-0.069 1.117,-0.21 V 7.787 C 9.455,7.64 9.756,7.43 10.004,7.162 10.259,6.894 10.454,6.572 10.59,6.21 10.728,5.842 10.794,5.436 10.794,5 h 0.01 c 0,-0.43 -0.065,-0.831 -0.203,-1.198 A 2.771,2.771 0 0 0 10.016,2.839 2.5,2.5 0 0 0 9.119,2.221 2.835,2.835 0 0 0 7.999,2 Z m 0.024,8.002 c -2.317,0 -3.561,0.213 -4.486,0.91 C 3.076,11.262 2.771,11.737 2.599,12.29 2.427,12.843 2.373,13.265 2.371,14 L 8,14.002 h 5.629 C 13.628,13.266 13.577,12.843 13.404,12.29 13.232,11.737 12.927,11.263 12.464,10.914 11.541,10.217 10.34,10.002 8.024,10.002 Z"
       style="line-height:125%;-inkscape-font-specification:'Ubuntu, Normal';font-variant-ligatures:normal;font-variant-position:normal;font-variant-caps:normal;font-variant-numeric:normal;font-variant-alternates:normal;font-feature-settings:normal;text-indent:0;text-align:start;text-decoration:none;text-decoration-line:none;text-decoration-style:solid;text-decoration-color:#000000;text-transform:none;text-orientation:mixed;shape-padding:0;overflow:visible;isolation:auto;mix-blend-mode:normal"
       overflow="visible"
       id="path826"
       inkscape:connector-curvature="0" />
  </g>
</svg>
